!!!!SEGMENT: pl-cz--iii-107--001-005_dankowski-adalbert--vesperae-es-gloria-patri.krn
!!!cenid: 18xx:765
!!!COM: Dankowski, Adalbert
!!!COM-rismID: pe30000793
!!!CDT: ~1760-~1836
!!!CNT: Polish
!!!OPR: Vesperae Es
!!!OTL: Gloria patri
!!!OMV: 005
!!!PDT: 1825
!!!AGN: Sacred; Vespers
!!!YEC: Copyright 2022 Narodowy Instytut Fryderyka Chopina (https://polishscores.org)
!!!YEM: License CC-BY-4.0 (https://creativecommons.org/licenses/by/4.0)
!!!SMS-siglum: PL-CZ
!!!SMS-shelfmark: III-107
!!!SMS-shelfwork: 001-005 M
!!!SMS-variant:
!!!SMS-altvar:
!!!NIFC-rismSourceID: 300000115
!!!NIFC-rismChildID: 300000115
!!!NIFC-islandoraID: pl-cz:34263
!!!URL-pdf-islandora: https://repozytorium.nifc.pl/islandora/object/pl-cz%3A34263/datastream/PDF/view
!!!URL-scan: https://polish.musicsources.pl/pl/lokalizacje/galeria/rekopisy/6825/1 @EN{Scan on Polish Music Sources Website} @PL{Skany w portalu Dziedzictwo Muzyki Polskiej w otwartym dostępie}
!!!IIIF:
!!!ONB-nifc: UWAGA: części Vesperae: Dixit Dominus, Tecum principium, Iudicabit, De torrente,
!!!AIN: 1 alto 1 bass 2 clara 2 cor 1 organ 1 soprn 1 tenor 2 violn
!!!key: E-
**kern	**fba	**kern	**dynam	**kern	**dynam	**kern	**text	**kern	**text	**kern	**text	**kern	**text	**kern	**dynam	**kern	**kern	**kern
*	*	*group4	*	*group4	*	*group3	*	*group3	*	*group3	*	*group3	*	*group2	*	*group2	*group1	*group1
*part11	*	*part10	*	*part9	*	*part8	*	*part7	*	*part6	*	*part5	*	*part4	*	*part3	*part2	*part1
*staff11	*	*staff10	*	*staff9	*	*staff8	*	*staff7	*	*staff6	*	*staff5	*	*staff4	*	*staff3	*staff2	*staff1
*I"Organo.	*	*I"Violino Secondo.	*	*I"Violino ,, Primo	*	*I"Baſso	*	*I"Tenore	*	*I"Alto!	*	*I"Soprano.	*	*I"Corno Secondo. in Dis Obligato.	*	*I"Corno Prymo in Dis Obligato	*I"Clarinetto Secundo in Dis	*I"Clarinetto. Primo. in Dis.
*I'org	*	*I'vl 2	*	*I'vl 1	*	*I'B	*	*I'T	*	*I'A	*	*I'S	*	*I'cor 2 in Dis	*	*I'cor 1 in Dis	*I'cl 2 in Dis	*I'cl 1 in Dis
*Iorgan	*	*Ivioln	*	*Ivioln	*	*Ibass	*	*Itenor	*	*Ialto	*	*Isoprn	*	*Icor	*	*Icor	*Iclara	*Iclara
*ICklav	*	*ICstr	*	*ICstr	*	*ICvox	*	*ICvox	*	*ICvox	*	*ICvox	*	*ICbras	*	*ICbras	*ICww	*ICww
*IGcont	*	*IGacmp	*	*IGacmp	*	*IGcoro	*	*IGcoro	*	*IGcoro	*	*IGcoro	*	*IGacmp	*	*IGacmp	*IGacmp	*IGacmp
*clefF4	*	*clefG2	*	*clefG2	*	*clefF4	*	*clefC4	*	*clefC3	*	*clefC1	*	*clefG2	*	*clefG2	*clefG2	*clefG2
*	*	*	*	*	*	*	*	*	*	*	*	*	*	*ITrd-2c-3	*	*ITrd-2c-3	*ITrd1c2	*ITrd1c2
*k[b-e-a-]	*	*k[b-e-a-]	*	*k[b-e-a-]	*	*k[b-a-e-]	*	*k[b-e-a-]	*	*k[b-e-a-]	*	*k[b-e-a-]	*	*k[b-e-a-]	*	*k[b-e-a-]	*k[b-e-a-]	*k[b-e-a-]
*E-:	*	*E-:	*	*E-:	*	*E-:	*	*E-:	*	*E-:	*	*E-:	*	*	*	*	*E-:	*E-:
*M4/4	*	*M4/4	*	*M4/4	*	*M4/4	*	*M4/4	*	*M4/4	*	*M4/4	*	*M4/4	*	*M4/4	*M4/4	*M4/4
*met(c)	*	*met(C.)	*	*met(C.|)	*	*met(c)	*	*met(c)	*	*met(c)	*	*met(c)	*	*met(c)	*	*met(c)	*met(C.)	*met(C.|)
*	*	*	*	*	*	*all\right	*	*	*	*	*	*	*	*	*	*all\right	*all\right	*
=1	=1	=1	=1	=1	=1	=1	=1	=1	=1	=1	=1	=1	=1	=1	=1	=1	=1	=1
!	!	!	!	!	!	!	!	!	!	!	!	!LO:TX:a:t=2	!	!	!	!	!	!
!LO:TX:a:i:t=Solo.	!	!LO:TX:t=P:problem=mixed beam	!	!LO:TX:t=P:problem=mixed beam	!	!	!	!LO:TX:a:t=7	!	!LO:TX:a:t=2.	!	!LO:TX:b:t=2	!	!LO:TX:a:t=2.	!	!LO:TX:a:t=2	!LO:TX:a:t=2	!LO:TX:a:t=2
!LO:TX:a:Bi:t=Adagio	!	!LO:TX:a:Bi:t=Adagio.	!	!LO:TX:a:Bi:t=Adagio	!	!LO:TX:a:Bi:t=Adagio	!	!LO:TX:a:Bi:t=Adagio	!	!LO:TX:a:Bi:t=Adagio	!	!LO:TX:a:Bi:t=Andante	!	!LO:TX:a:Bi:t=Adagio.	!	!LO:TX:a:Bi:t=Adagio	!LO:TX:a:Bi:t=Adagio.	!LO:TX:a:Bi:t=Adagio.
8E-\L	.	16ee-\LL	.	16ee-\LL	f	00r	.	00r	.	0r	.	0r	.	0r	.	0r	0r	0r
.	.	16e-/	.	16e-/	.	.	.	.	.	.	.	.	.	.	.	.	.	.
8E-\	.	16g/	.	16g/	.	.	.	.	.	.	.	.	.	.	.	.	.	.
.	.	16b-/JJ	.	16b-/JJ	.	.	.	.	.	.	.	.	.	.	.	.	.	.
8E-\	.	16ee-\LL	.	16ee-\LL	.	.	.	.	.	.	.	.	.	.	.	.	.	.
.	.	16gg\	.	16gg\	.	.	.	.	.	.	.	.	.	.	.	.	.	.
8E-\J	.	16bb-\	.	16bb-\	.	.	.	.	.	.	.	.	.	.	.	.	.	.
.	.	16gg\JJ	.	16gg\JJ	.	.	.	.	.	.	.	.	.	.	.	.	.	.
*tremolo	*	*	*	*	*	*	*	*	*	*	*	*	*	*	*	*	*	*
!	!	!LO:TX:t=P:problem=mixed beam	!	!LO:TX:t=P:problem=mixed beam	!	!	!	!	!	!	!	!	!	!	!	!	!	!
8BB-/L	.	16ff\LL	.	16ff\LL	.	.	.	.	.	.	.	.	.	.	.	.	.	.
.	.	16d/	.	16d/	.	.	.	.	.	.	.	.	.	.	.	.	.	.
8BB-/	.	16f/	.	16f/	.	.	.	.	.	.	.	.	.	.	.	.	.	.
.	.	16b-/JJ	.	16b-/JJ	.	.	.	.	.	.	.	.	.	.	.	.	.	.
8BB-/	.	16dd\LL	.	16dd\LL	.	.	.	.	.	.	.	.	.	.	.	.	.	.
.	.	16ff\	.	16ff\	.	.	.	.	.	.	.	.	.	.	.	.	.	.
8BB-/J	.	16aa-\	.	16aa-\	.	.	.	.	.	.	.	.	.	.	.	.	.	.
.	.	16ff\JJ	.	16ff\JJ	.	.	.	.	.	.	.	.	.	.	.	.	.	.
=2	=2	=2	=2	=2	=2	=2	=2	=2	=2	=2	=2	=2	=2	=2	=2	=2	=2	=2
*2\right	*	*	*	*	*	*	*	*	*	*	*	*	*	*	*	*	*	*
!	!	!LO:TX:t=P:problem=mixed beam	!	!LO:TX:t=P:problem=mixed beam	!	!	!	!	!	!	!	!	!	!	!	!	!	!
8E-\L	.	16gg\LL	.	16gg\LL	.	.	.	.	.	.	.	.	.	.	.	.	.	.
.	.	16e-/	.	16e-/	.	.	.	.	.	.	.	.	.	.	.	.	.	.
8E-\	.	16g/	.	16g/	.	.	.	.	.	.	.	.	.	.	.	.	.	.
.	.	16b-/JJ	.	16b-/JJ	.	.	.	.	.	.	.	.	.	.	.	.	.	.
8E-\	.	16ee-\LL	.	16ee-\LL	.	.	.	.	.	.	.	.	.	.	.	.	.	.
.	.	16b-\	.	16gg\	.	.	.	.	.	.	.	.	.	.	.	.	.	.
8E-\J	.	16gg\	.	16bb-\	.	.	.	.	.	.	.	.	.	.	.	.	.	.
.	.	16b-\JJ	.	16gg\JJ	.	.	.	.	.	.	.	.	.	.	.	.	.	.
*Xtremolo	*	*	*	*	*	*	*	*	*	*	*	*	*	*	*	*	*	*
!LO:TX:t=P:problem=mixed beam	!	!	!	!LO:LB:g=original	!	!	!	!	!	!	!	!	!	!	!	!	!	!
8A-\L	6	16a-/LL	.	16ff\LL	.	.	.	.	.	.	.	.	.	.	.	.	.	.
.	.	16cc/	.	16aa-\	.	.	.	.	.	.	.	.	.	.	.	.	.	.
8A-\	.	16e-/	.	16cc\	.	.	.	.	.	.	.	.	.	.	.	.	.	.
.	.	16a-/JJ	.	16ff\JJ	.	.	.	.	.	.	.	.	.	.	.	.	.	.
8B-\	4	8g/L	.	8ee-\L	.	.	.	.	.	.	.	.	.	.	.	.	.	.
8BB-/J	3	8f/J	.	8dd\J	.	.	.	.	.	.	.	.	.	.	.	.	.	.
=3	=3	=3	=3	=3	=3	=3	=3	=3	=3	=3	=3	=3	=3	=3	=3	=3	=3	=3
*	*	*tremolo	*	*	*	*	*	*	*	*	*	*	*	*	*	*	*	*
!	!	!	!LO:DY:rj	!LO:TX:t=P:problem=mixed beam	!	!	!	!	!	!LO:TX:a:i:t=Solo.	!	!	!	!LO:TX:a:i:t=Solo.	!LO:DY:t=p.	!LO:TX:a:i:t=Solo	!LO:TX:b:i:t=Solo	!
4E-\	.	8e-/L	p	8ee-\L	p	.	.	.	.	16g\LL	Glo-	16ee-\LL	Glo-	8r	p	8r	(16ee-\LL	16gg\LL
.	.	.	.	.	.	.	.	.	.	16b-\JJ	.	16gg\JJ	.	.	.	.	16gg\JJ)	16bb-\JJ
.	.	8e-/	.	8e-/	.	.	.	.	.	4b-\	-ri-	4gg\	-ri-	8e-/L	.	8ee-\L	4gg\	4bb-\
4r	.	8e-/	.	8e-/	.	.	.	.	.	.	.	.	.	8e-/J	.	8ee-\J	.	.
.	.	8e-/J	.	8e-/J	.	.	.	.	.	16a-\LL	-a	16ff\LL	-a	8r	.	8r	(16ff\LL	16aa-\LL
.	.	.	.	.	.	.	.	.	.	16g\JJ	.	16ee-\JJ	.	.	.	.	16ee-\JJ)	16gg\JJ
*	*	*	*	*tremolo	*	*	*	*	*	*	*	*	*	*	*	*	*	*
2r	.	8B-/L	.	8B-/L	.	.	.	.	.	16g\LL	Pa-	16ee-\LL	pa-	8r	.	8r	(16ee-\LL	(16gg\LL
.	.	.	.	.	.	.	.	.	.	16f\JJ	.	16dd\JJ	.	.	.	.	16dd\JJ)	16ff\JJ)
.	.	8B-/	.	8B-/	.	.	.	.	.	4f\	.	4dd\	-tri	8B-/L	.	8b-/L	4dd\	4ff\
.	.	8B-/	.	8B-/	.	.	.	.	.	.	.	.	.	8B-/J	.	8b-/J	.	.
.	.	8B-/J	.	8B-/J	.	.	.	.	.	16g\LL	.	16ee-\LL	pa-	8r	.	8ryy	(16ee-\LL	16gg\LL
.	.	.	.	.	.	.	.	.	.	16a-\JJ	.	16ff\JJ	.	.	.	.	16ff\JJ)	16aa-\JJ
!LO:LB:g=original	!	!	!	!	!	!	!	!	!	!	!	!	!	!	!	!	!	!
=4	=4	=4	=4	=4	=4	=4	=4	=4	=4	=4	=4	=4	=4	=4	=4	=4	=4	=4
!LO:TX:a:t=4.	!	!	!	!	!	!	!	!	!	!	!	!	!	!	!	!	!	!
00r	.	8d/L	.	8d/L	.	.	.	.	.	16g\LL	.	16ee-\LL	.	2r	.	2r	16ee-\LL	16gg\LL
.	.	.	.	.	.	.	.	.	.	16f\J	.	16dd\J	.	.	.	.	16dd\J	16ff\J
.	.	8d/	.	8d/	.	.	.	.	.	8.f\J	.	8.dd\J	.	.	.	.	8.dd\J	8.ff\J
.	.	8d/	.	8d/	.	.	.	.	.	.	.	.	.	.	.	.	.	.
.	.	.	.	.	.	.	.	.	.	16cc\LL	.	16aa-\LL	.	.	.	.	(16aa-X\LL	16ccc\LL
.	.	8d/J	.	8d/J	.	.	.	.	.	16b-\	.	16gg\	.	.	.	.	16gg\)	16bb-\
.	.	.	.	.	.	.	.	.	.	16a-\JJ	.	16ff\JJ	.	.	.	.	16ff\JJ	16aa-\JJ
!	!	!	!	!	!	!	!	!	!	!LO:LB:g=original	!	!	!	!	!	!	!	!
.	.	8e-/L	.	8e-/L	.	.	.	.	.	8a-\	.	8ff\	.	8r	.	8r	8ff\L	16aa-\LL
.	.	.	.	.	.	.	.	.	.	.	.	.	.	.	.	.	.	16gg\J
!	!	!	!	!	!	!	!	!	!	!LO:SIC:v:s=8g\	!	!	!	!	!	!	!	!
.	.	8e-/	.	8e-/	.	.	.	.	.	8a-\	tri	8ee-\	-tri	8e-/L	.	8ee-\L	8ee-\J	8gg\J
!	!	!	!	!	!	!	!	!	!	!	!	!	!	!	!	!	!LO:LB:g=original	!
.	.	8e-/	.	8e-/	.	.	.	.	.	8r	.	8r	.	8e-/J	.	8ee-\J	8r	8r
.	.	8e-/J	.	8e-/J	.	.	.	.	.	16g\LL	glo-	16ee-\LL	glo-	8r	.	8r	(16ee-\LL	16gg\LL
.	.	.	.	.	.	.	.	.	.	16b-\JJ	.	16gg\JJ	.	.	.	.	16gg\JJ)	16bb-\JJ
=5	=5	=5	=5	=5	=5	=5	=5	=5	=5	=5	=5	=5	=5	=5	=5	=5	=5	=5
.	.	8B-/L	.	8B-/L	.	0r	.	0r	.	4b-\	-ri-	4gg\	-ri-	8r	.	8r	4gg\	4bb-\
.	.	8B-/	.	8B-/	.	.	.	.	.	.	.	.	.	8B-/L	.	8ee-\L	.	.
.	.	8B-/	.	8B-/	.	.	.	.	.	8a-\	-a	8ff\	-a	8B-/J	.	8ee-\J	8ff\L	8aa-\L
*	*	*	*	*	*	*	*	*	*	*	*	*	*ij	*	*	*	*	*
.	.	8B-/J	.	8B-/J	.	.	.	.	.	16f\LL	glo-	16dd\LL	glo-	8r	.	8r	(16dd\L	16ff\L
.	.	.	.	.	.	.	.	.	.	16a-\JJ	.	16ff\JJ	.	.	.	.	16ff\JJ)	16aa-\JJ
!	!	!	!	!	!	!	!	!	!	!	!	!LO:LB:g=original	!	!	!	!	!	!
.	.	8e-/L	.	8e-/L	.	.	.	.	.	4a-\	-ri-	4ff\	-ri-	8r	.	8r	4ee-\	4aa-\
.	.	8e-/	.	8e-/	.	.	.	.	.	.	.	.	.	8e-/L	.	8b-/L	.	.
!	!	!	!	!	!	!	!	!	!	!	!	!LO:N:vis=16	!	!	!	!	!	!
.	.	8e-/	.	8e-/	.	.	.	.	.	8g\	-a	8ee-\L	-a	8e-/J	.	8b-/J	4ff\	8gg\L
*	*	*	*	*	*	*	*	*	*	*	*	*	*Xij	*	*	*	*	*
!	!	!	!	!	!	!	!	!	!	!	!	!LO:N:vis=16	!	!	!	!	!	!
.	.	8e-/J	.	8e-/J	.	.	.	.	.	8b-\	glo-	8gg\J	glo-	8r	.	8ryy	.	8bb-\J
*	*	*Xtremolo	*	*Xtremolo	*	*	*	*	*	*	*	*	*	*	*	*	*	*
!	!	!LO:LB:g=original	!	!	!	!	!	!	!	!	!	!	!	!	!	!	!	!
=6	=6	=6	=6	=6	=6	=6	=6	=6	=6	=6	=6	=6	=6	=6	=6	=6	=6	=6
.	.	8e-/L	.	8e-/L	.	.	.	.	.	16b-\LL	.	16gg\LL	.	2r	.	2r	(16gg\LL	16bb-\LL
.	.	.	.	.	.	.	.	.	.	16g\	.	16ee-\	.	.	.	.	16ee-\)	16gg\
.	.	8e-/	.	8e-/	.	.	.	.	.	16cc\	.	16aa-\	.	.	.	.	(16aa-\	16ccc\
.	.	.	.	.	.	.	.	.	.	16b-\JJ	.	16gg\JJ	.	.	.	.	16gg\JJ)	16bb-\JJ
.	.	8A-/	.	8A-/	.	.	.	.	.	16b-\LL	-ri-	16gg\LL	-ri-	.	.	.	(16gg\LL	16bb-\LL
.	.	.	.	.	.	.	.	.	.	16a-\JJ	.	16ff\JJ	-a	.	.	.	16ff\)	16aa-\
.	.	8An/J	.	8An/J	.	.	.	.	.	16a-\LL	-a	16ff\LL	fi-	.	.	.	(16ff\	16aa-\
.	.	.	.	.	.	.	.	.	.	16g\JJ	.	16ee-\JJ	.	.	.	.	16ee-\JJ)	16gg\JJ
*	*	*tremolo	*	*tremolo	*	*	*	*	*	*	*	*	*	*	*	*	*	*
.	.	8B-/L	.	8B-/L	.	.	.	.	.	16g\	fi-	16ee-\	.	8r	.	8r	8ee-\L	8gg\L
!	!	!	!	!	!	!	!	!	!	!	!	!	!LO:MO:mod=-li-	!	!	!	!	!
.	.	.	.	.	.	.	.	.	.	16f\	-li-	16ee-\	-i-	.	.	.	.	.
.	.	8B-/	.	8B-/	.	.	.	.	.	8f\	-o,	8dd\	-o	8B-/L	.	8b-/L	8dd\J	8ff\J
!	!	!	!	!	!	!	!	!	!	!LO:PB:g=original	!	!	!	!	!	!	!	!
.	.	8B-/	.	8B-/	.	.	.	.	.	16r	.	16r	.	8B-/J	.	8b-/J	16r	16r
!	!	!	!	!	!	!	!	!	!	!	!	!	!	!	!	!	!	!LO:TX:a:i:t=Solo.
.	.	.	.	.	.	.	.	.	.	16f\LL	glo-	16dd\LL	glo-	.	.	.	16dd\LL	16ff\LL
*	*	*	*	*custos:cc	*	*	*	*	*	*	*	*	*	*	*	*	*	*
.	.	8B-/J	.	8B-/J	.	.	.	.	.	16g\	.	16ee-\	.	8r	.	8r	16ee-\	16gg\
.	.	.	.	.	.	.	.	.	.	16a-\JJ	.	16ff\JJ	.	.	.	.	16ff\JJ	16aa-\JJ
!	!	!	!	!LO:LB:g=original	!	!	!	!	!	!	!	!	!	!LO:LB:g=original	!	!LO:LB:g=original	!	!
=7	=7	=7	=7	=7	=7	=7	=7	=7	=7	=7	=7	=7	=7	=7	=7	=7	=7	=7
!	!	!	!	!	!	!	!	!	!	!	!	!	!	!LO:TX:t=P:problem=brak taktu nr 7	!	!	!	!
.	.	8e-/L	.	8e-/L	.	1r	.	1r	.	16g\	.	16ee-\	.	1ryy	.	8r	(16ee-\LL	16gg\LL
.	.	.	.	.	.	.	.	.	.	16b-\	-ri-	16gg\	-ri-	.	.	.	16gg\J)	16bb-\J
.	.	8e-/	.	8e-/	.	.	.	.	.	8g\	-a	8ee-\	-a	.	.	8ee-\L	8ee-|\J	8gg\J
.	.	8e-/	.	8e-/	.	.	.	.	.	16r	.	16r	.	.	.	8ee-\J	16r	16r
*	*	*	*	*	*	*	*	*	*	*	*ij	*	*ij	*	*	*	*	*
.	.	.	.	.	.	.	.	.	.	16g\LL	glo-	16ee-\LL	glo-	.	.	.	(16ee-\LL	16gg\LL
.	.	8e-/J	.	8e-/J	.	.	.	.	.	16a-\	.	16ff\	.	.	.	8r	16ff\	16aa-\
.	.	.	.	.	.	.	.	.	.	16b-\JJ	.	16gg\JJ	.	.	.	.	16gg\JJ)	16bb-\JJ
.	.	8B-/L	.	8B-/L	.	.	.	.	.	16b-\LL	.	16gg\	.	.	.	8r	(16gg\LL	16bb-\LL
.	.	.	.	.	.	.	.	.	.	16a-\JJ	-ri-	16ff\	-ri-	.	.	.	16ff\J)	16aa-\J
.	.	8B-/	.	8B-/	.	.	.	.	.	8f\	-a	8dd\	-a	.	.	8b-/L	8dd|\J	8ff\J
*	*	*	*	*	*	*	*	*	*	*	*Xij	*	*Xij	*	*	*	*	*
*	*	*	*	*	*	*	*	*	*	*	*	*custos:dd	*	*	*	*	*	*
!	!	!	!	!	!	!	!	!	!	!	!	!	!	!	!	!	!	!LO:PB:g=original
.	.	8B-/	.	8B-/	.	.	.	.	.	16r	.	16r	.	.	.	8b-/J	16r	16r
!	!	!	!	!	!	!	!	!	!	!	!	!LO:LB:g=original	!	!	!	!	!	!
.	.	.	.	.	.	.	.	.	.	16f\LL	et	16dd\LL	et	.	.	.	(16dd\LL	16ff\LL
.	.	8B-/J	.	8B-/J	.	.	.	.	.	16g\JJ	.	16ee-\JJ	.	.	.	8r	16ee-\	16gg\
.	.	.	.	.	.	.	.	.	.	16a-\	spi-	16ff\	spi-	.	.	.	16ff\JJ)	16aa-\JJ
*	*	*Xtremolo	*	*Xtremolo	*	*	*	*	*	*	*	*	*	*	*	*	*	*
=8	=8	=8	=8	=8	=8	=8	=8	=8	=8	=8	=8	=8	=8	=8	=8	=8	=8	=8
!	!	!	!	!	!	!	!	!LO:TX:a:t=Tutti	!	!	!	!	!	!	!	!	!	!
2r	.	8e-/L	.	8e-/L	.	2r	.	2r	.	16g\LL	-ri-	16ee-\LL	-ri-	2r	.	2r	16ee-\LL	16gg\LL
.	.	.	.	.	.	.	.	.	.	16b-\JJ	.	16gg\JJ	.	.	.	.	16gg\	16bb-\
.	.	8A-/	.	8A-/	.	.	.	.	.	16cc\	-tu-	16aa-\	-tu-	.	.	.	16aa-\	16ccc\
.	.	.	.	.	.	.	.	.	.	16a-\	-i	16ff\	-i	.	.	.	16ff\JJ	16aa-\JJ
!	!	!	!	!	!	!	!	!	!	!LO:LB:g=original	!	!	!	!	!	!	!	!
.	.	8B-/	.	8B-/	.	.	.	.	.	16a-\LL	San-	16ff\LL	San-	.	.	.	16ff\LL	16aa-\LL
.	.	.	.	.	.	.	.	.	.	16g\	.	16ee-\	.	.	.	.	16ee-\	16gg\
.	.	8B-/J	.	8B-/J	.	.	.	.	.	16g\	.	16ee-\	.	.	.	.	16ee-\	16gg\
.	.	.	.	.	.	.	.	.	.	16f\JJ	.	16dd\JJ	.	.	.	.	16dd\JJ	16ff\JJ
*tremolo	*	*	*	*	*	*	*	*	*	*	*	*	*	*2\right	*	*2\right	*2\right	*2\right
!LO:TX:a:i:t=Tutti	!	!	!LO:DY:rj:t=f.	!	!LO:DY:rj	!	!	!	!	!	!	!	!	!	!	!	!	!
8E-\L	.	(16e-/LL	f	(16e-/LL	f	4E-\	Glo-	4B-\	Glo-	8g\	-cto	8ee-\	-cto	2ee-\	.	2gg\	2ee-\	2gg\
.	.	16g/	.	16g/	.	.	.	.	.	.	.	.	.	.	.	.	.	.
8E-\	.	16b-/	.	16b-/	.	.	.	.	.	8g\	glo-	8ee-\	glo-	.	.	.	.	.
.	.	16ee-/JJ)	.	16ee-/JJ)	.	.	.	.	.	.	.	.	.	.	.	.	.	.
8E-\	.	(16gg\LL	.	16gg\LL	.	8E-\	-ri-	8B-\	-ri-	8g\	-ri-	8ee-\	-ri-	.	.	.	.	.
.	.	16ee-\JJ)	.	16ee-\JJ	.	.	.	.	.	.	.	.	.	.	.	.	.	.
8E-\J	.	16r	.	16r	.	8E-\	-a	8B-\	-a	8g\	-a	8ee-\	-a	.	.	.	.	.
.	.	16ee-\	.	16ee-\	.	.	.	.	.	.	.	.	.	.	.	.	.	.
!	!	!	!	!	!	!	!	!	!	!	!	!	!	!	!	!	!LO:LB:g=original	!
=9	=9	=9	=9	=9	=9	=9	=9	=9	=9	=9	=9	=9	=9	=9	=9	=9	=9	=9
!	!	!LO:TX:t=P:problem=mixed beam	!	!	!	!	!	!	!	!	!	!	!	!	!	!	!LO:TX:t=P:problem=zbędna kreska taktowa	!
8BB-/L	.	(16dd\LL	.	16dd/LL	.	4B-\	Pa-	4B-\	pa-	4f\	pa-	4dd\	pa-	2ff\	.	2aa-\	2dd\	2ff\
.	.	16f/	.	16f/JJ	.	.	.	.	.	.	.	.	.	.	.	.	.	.
8BB-/	.	16b-/	.	16b-\LL	.	.	.	.	.	.	.	.	.	.	.	.	.	.
.	.	16dd/JJ)	.	16dd\JJ	.	.	.	.	.	.	.	.	.	.	.	.	.	.
8BB-/	.	(16ff\LL	.	16ff\LL	.	8B-\	-tri	8B-\	-rti	8f\	-tri	8dd\	-tri	.	.	.	.	.
.	.	16dd\JJ)	.	16dd\JJ	.	.	.	.	.	.	.	.	.	.	.	.	.	.
8BB-/J	.	16r	.	16r	.	8B-\	et	8B-\	et	8f\	et	8dd\	et	.	.	.	.	.
.	.	16dd\	.	16dd\	.	.	.	.	.	.	.	.	.	.	.	.	.	.
8E-\L	.	(16ee-\LL	.	(16ee-\LL	.	8.E-\	Fi-	8.B-\	fi-	8g\	fi-	8.ee-\	fi-	2ee-\	.	2gg\	2ee-\	2gg\
.	.	16b-\	.	16b-\)	.	.	.	.	.	.	.	.	.	.	.	.	.	.
8E-\	.	16gg\	.	(16gg\	.	.	.	.	.	8g\	-li-	.	.	.	.	.	.	.
.	.	16ee-\JJ)	.	16ee-\JJ)	.	16E-\	-li-	16B-\	-lio-	.	.	16ee-\	-li-	.	.	.	.	.
!	!	!	!	!	!	!LO:N:vis=16	!	!	!	!	!	!	!	!	!	!	!	!
8E-\	.	16b-\LL	.	(16b-\LL	.	8E-\	-o	8B-\	-o	8g\	-o	8ee-\	-o	.	.	.	.	.
.	.	16ee-\	.	16ee-\)	.	.	.	.	.	.	.	.	.	.	.	.	.	.
!	!	!	!	!	!	!LO:N:vis=16	!	!	!	!	!	!	!	!	!	!	!	!
8E-\J	.	16gg\	.	(16gg\	.	8E-\	et	8B-\	et	8g\	et	8ee-\	et	.	.	.	.	.
.	.	16bb-\JJ	.	16bb-\JJ)	.	.	.	.	.	.	.	.	.	.	.	.	.	.
*Xtremolo	*	*	*	*	*	*	*	*	*	*	*	*	*	*	*	*	*	*
!	!	!LO:LB:g=original	!	!LO:LB:g=original	!	!	!	!	!	!	!	!	!	!	!	!	!	!
=10	=10	=10	=10	=10	=10	=10	=10	=10	=10	=10	=10	=10	=10	=10	=10	=10	=10	=10
8E-\L	4 2	(16aan\LL	.	16aan\LL	.	8E-\	Spi-	8c\	spi-	8an\	Spi-	8ff\	Spi-	4ff\	.	4aaX\	4cc\	4aa\
.	.	16ff\JJ)	.	16ff\JJ	.	.	.	.	.	.	.	.	.	.	.	.	.	.
8E-\	.	16r	.	16r	.	8E-\	-ri-	8c\	-ri-	8a\	-ri-	8ff\	-ri-	.	.	.	.	.
.	.	(16ff\LL	.	16ff\	.	.	.	.	.	.	.	.	.	.	.	.	.	.
8D\	6	16bb-\	.	16bb-\LL	.	8D\	-tu-	8d\	-tu-	8b-\	-tu-	8ff\	-tu-	4b-/	.	4bb-\	4dd\	4bb-\
.	.	16ff\JJ)	.	16ff\JJ	.	.	.	.	.	.	.	.	.	.	.	.	.	.
!	!	!	!	!	!	!	!	!LO:N:vis=8.	!	!	!	!	!	!	!	!	!	!
8D\J	.	16r	.	16r	.	8D\	-i	8d\	-i	8b-\	-i	8ff\	-i	.	.	.	.	.
.	.	16ff\	.	16ff\	.	.	.	.	.	.	.	.	.	.	.	.	.	.
*	*	*tremolo	*	*	*	*	*	*	*	*	*	*2\right	*	*	*	*	*	*
!	!	!	!	!	!	!	!	!	!	!LO:LB:g=original	!	!	!	!	!	!	!	!
8C/L	7_	16ee-\LL	.	16bb-\LL	.	2C/	San-	4G/	San-	4b-\	San-	2ee-\	San-	4gg\	.	4bb-\	2ee-\	4bb-\
.	.	16ee-\	.	16bb-\	.	.	.	.	.	.	.	.	.	.	.	.	.	.
8C/	.	16ee-\	.	16bb-\	.	.	.	.	.	.	.	.	.	.	.	.	.	.
.	.	16ee-\JJ	.	16bb-\JJ	.	.	.	.	.	.	.	.	.	.	.	.	.	.
8C/	6\	16ee-\LL	.	16aan\LL	.	.	.	4F/	.	4a\	.	.	.	4ff\	.	4aa\	.	4aa\
.	.	16ee-\	.	16aa\	.	.	.	.	.	.	.	.	.	.	.	.	.	.
8C/J	.	16ee-\	.	16aa\	.	.	.	.	.	.	.	.	.	.	.	.	.	.
.	.	16ee-\JJ	.	16aa\JJ	.	.	.	.	.	.	.	.	.	.	.	.	.	.
*	*	*Xtremolo	*	*	*	*	*	*	*	*	*	*	*	*	*	*	*	*
!	!	!	!	!	!	!LO:LB:g=original	!	!	!	!	!	!LO:LB:g=original	!	!	!	!	!	!
=11	=11	=11	=11	=11	=11	=11	=11	=11	=11	=11	=11	=11	=11	=11	=11	=11	=11	=11
4BB-/	.	4dd\	.	4bb-\	.	4BB-/	-cto	4F/	-cto	4b-\	-cto.	4dd\	-cto	4b-/	.	4bb-\	4dd\	4bb-\
4r	.	4r	.	4r	.	4r	.	4r	.	4r	.	4r	.	4r	.	4r	4r	4r
!	!	!	!	!	!	!	!	!LO:TX:b:i:t=Verte Cito Sicut	!	!	!	!	!	!	!	!	!	!
2r	.	2r	.	2r	.	2r	.	2r	.	2r	.	2r	.	2r	.	2r	2r	2ryy
==	==	==	==	==	==	==	==	==	==	==	==	==	==	==	==	==	==	==
*-	*-	*-	*-	*-	*-	*-	*-	*-	*-	*-	*-	*-	*-	*-	*-	*-	*-	*-
!!!system-decoration: [(g1)][(g2)][(g3)][(g4)]<s11>
!!!RDF**kern: | = vertical stroke
!!!ENC: Marta Chmielewska
!!!END: 2020-07-08
!!!ENC: Andrzej Kubiczek
!!!END: 2021-11-22
